trunk/WorldWind/resources/milstd2525/icons/ems/enfalm---------.svg

<?xml version="1.0" encoding="UTF-8" standalone="no"?>
<!--
Copyright (C) 2012 United States Government as represented by the Administrator of the
National Aeronautics and Space Administration.
All Rights Reserved.
-->

<!--
MIL-STD-2525 tactical symbol icon image. During icon composition this image is multiplied by the desired frame color 
(e.g. black), then drawn on top of the frame and fill.
-->

<svg
   xmlns:dc="http://purl.org/dc/elements/1.1/"
   xmlns:cc="http://creativecommons.org/ns#"
   xmlns:rdf="http://www.w3.org/1999/02/22-rdf-syntax-ns#"
   xmlns:svg="http://www.w3.org/2000/svg"
   xmlns="http://www.w3.org/2000/svg"
   xmlns:sodipodi="http://sodipodi.sourceforge.net/DTD/sodipodi-0.dtd"
   xmlns:inkscape="http://www.inkscape.org/namespaces/inkscape"
   height="400px"
   viewBox="0 0 400 400"
   width="400px"
   id="svg2"
   version="1.1"
   inkscape:version="0.48.2 r9819"
   sodipodi:docname="enfalm---------.svg">
  <metadata
     id="metadata40">
    <rdf:RDF>
      <cc:Work
         rdf:about="">
        <dc:format>image/svg+xml</dc:format>
        <dc:type
           rdf:resource="http://purl.org/dc/dcmitype/StillImage" />
      </cc:Work>
    </rdf:RDF>
  </metadata>
  <defs
     id="defs38" />
  <sodipodi:namedview
     pagecolor="#ffffff"
     bordercolor="#666666"
     borderopacity="1"
     objecttolerance="10"
     gridtolerance="10"
     guidetolerance="10"
     inkscape:pageopacity="0"
     inkscape:pageshadow="2"
     inkscape:window-width="640"
     inkscape:window-height="480"
     id="namedview36"
     showgrid="false"
     inkscape:zoom="0.71960881"
     inkscape:cx="18.53824"
     inkscape:cy="204.85544"
     inkscape:window-x="253"
     inkscape:window-y="233"
     inkscape:window-maximized="0"
     inkscape:current-layer="g4" />
  <g
     transform="scale(100) translate(0.65 0.64)"
     id="g4">
    <g
       id="g4-1"
       style="stroke:#000000;stroke-width:0.06;stroke-miterlimit:4;stroke-opacity:1;stroke-dasharray:0.12, 0.06;stroke-dashoffset:0">
      <path
         d="m 2.14238,1.89698 0,-1.307032 C 2.11772,0.595692 1.88472,0.739665 1.8441,0.764495 1.81145,0.784455 1.55422,0.927723 1.55422,0.943613 c 0,1.5e-5 0.03178,0.053448 0.0346,0.057657 L 1.71158,0.931648 1.71183,1.41261 1.70338,1.41953 C 1.63065,1.37108 0.868486,0.870573 0.862262,0.870573 0.859104,0.870573 0.765553,1.01044 0.762313,1.02434 0.80893613,1.0391635 1.1452399,1.2492406 1.62141,1.58664 1.61125,1.62514 1.5696,1.6846 1.5696,1.7163 l 0,0.18068 0.57278,0 z"
         style="fill:#000000;stroke:#000000;stroke-width:0.06;stroke-miterlimit:4;stroke-opacity:1;stroke-dasharray:0.12, 0.06;stroke-dashoffset:0"
         id="path6"
         inkscape:connector-curvature="0"
         sodipodi:nodetypes="cccsccccsccsccc" />
      <path
         d="m 0.46355598,1.4465083 0.67658302,0 c -0.00852,-0.03192 -0.08265,-0.17683 -0.10764,-0.17683 l -0.46130502,0 c -0.021323,0 -0.105374,0.14966 -0.107638,0.17683 z"
         style="fill:#ffffff;stroke:#000000;stroke-width:0.06;stroke-miterlimit:4;stroke-opacity:1;stroke-dasharray:0.12, 0.06;stroke-dashoffset:0"
         id="path8"
         inkscape:connector-curvature="0" />
      <path
         d="m 1.117069,1.6425583 -0.00384,0 c -0.02699,0 -0.04614,-0.0172 -0.04614,-0.04229 l 0,-0.01153 c 0,-0.02481 0.0144,-0.04613 0.03845,-0.04613 l 0.01153,0 c 0.02423,0 0.03844,0.0267 0.03844,0.04998 0,0.02697 -0.01183,0.04997 -0.03844,0.04997 z m -0.07689,-0.06151 0,0.02691 c 0,0.02598 0.03894,0.06151 0.07305,0.06151 0.0362,0 0.06535,-0.03304 0.06535,-0.0692 l 0,-0.01922 c 0,-0.02892 -0.03185,-0.06535 -0.06151,-0.06535 l -0.00384,0 c -0.03506,0 -0.07305,0.03444 -0.07305,0.06535 z"
         style="fill:#000000;stroke:#000000;stroke-width:0.06;stroke-miterlimit:4;stroke-opacity:1;stroke-dasharray:0.12, 0.06;stroke-dashoffset:0"
         id="path10"
         inkscape:connector-curvature="0" />
      <path
         d="m 0.44818198,1.5848983 0,0.02306 c 0,0.01542 0.023779,0.0346 0.042284,0.0346 l 0.003846,0 c 0.015815,0 0.038441,-0.01881 0.038441,-0.03075 l 0,-0.03076 c 0,-0.01932 -0.019114,-0.03844 -0.038441,-0.03844 l -0.011535,0 c -0.014674,0 -0.034595,0.02513 -0.034595,0.04229 z"
         style="fill:#ffffff;stroke:#000000;stroke-width:0.06;stroke-miterlimit:4;stroke-opacity:1;stroke-dasharray:0.12, 0.06;stroke-dashoffset:0"
         id="path12"
         inkscape:connector-curvature="0" />
      <path
         d="m 1.117069,1.6425583 c 0.02661,0 0.03844,-0.023 0.03844,-0.04997 0,-0.02328 -0.01421,-0.04998 -0.03844,-0.04998 l -0.01153,0 c -0.02405,0 -0.03845,0.02132 -0.03845,0.04613 l 0,0.01153 c 0,0.02509 0.01915,0.04229 0.04614,0.04229 z"
         style="fill:#ffffff;stroke:#000000;stroke-width:0.06;stroke-miterlimit:4;stroke-opacity:1;stroke-dasharray:0.12, 0.06;stroke-dashoffset:0"
         id="path14"
         inkscape:connector-curvature="0" />
      <path
         d="m 0.44818198,1.5848983 c 0,-0.01716 0.019921,-0.04229 0.034594,-0.04229 l 0.011536,0 c 0.019327,0 0.038441,0.01912 0.038441,0.03844 l 0,0.03076 c 0,0.01194 -0.022626,0.03075 -0.038441,0.03075 l -0.003847,0 c -0.018503,0 -0.042283,-0.01918 -0.042283,-0.0346 z m -0.026909,0.01153 0,0.00769 c 0,0.03091 0.037984,0.06535 0.073039,0.06535 0.033256,0 0.069193,-0.03805 0.069193,-0.06151 l 0,-0.02691 c 0,-0.02859 -0.036244,-0.06535 -0.069193,-0.06535 -0.041854,0 -0.073039,0.04056 -0.073039,0.08073 z"
         style="fill:#000000;stroke:#000000;stroke-width:0.06;stroke-miterlimit:4;stroke-opacity:1;stroke-dasharray:0.12, 0.06;stroke-dashoffset:0"
         id="path16"
         inkscape:connector-curvature="0" />
      <path
         d="m 1.040189,1.5810483 c 0,-0.03091 0.03799,-0.06535 0.07304,-0.06535 l 0.00385,0 c 0.02966,0 0.0615,0.03642 0.0615,0.06535 l 0,0.01922 c 0,0.03615 -0.02915,0.0692 -0.06535,0.0692 -0.03411,0 -0.07304,-0.03553 -0.07304,-0.06151 z m -0.61891302,0.01538 c 0,-0.04018 0.031185,-0.08073 0.073039,-0.08073 0.032949,0 0.069193,0.03675 0.069193,0.06535 l 0,0.02691 c 0,0.02346 -0.035937,0.06151 -0.069193,0.06151 -0.035055,0 -0.073039,-0.03444 -0.073039,-0.06535 z m -0.007665,-0.09524 c -0.011788,0.02365 -0.05,0.08385 -0.05,0.11062 l 0,0.01537 c 0,0.02204 0.006137,0.02749 0.007689,0.04613 0.013425,0.00313 0.012945,0.00769 0.026909,0.00769 l 0.80728002,0 c 0.01397,0 0.01349,-0.00456 0.02623,-0.00775 l 0.00452,-0.06529 c 0.00256,-0.03071 -0.03409,-0.0849 -0.04615,-0.10676 l -0.20372002,-0.00472 -0.376755,-9.4e-4 z"
         style="fill:#ffffff;stroke:#000000;stroke-width:0.06;stroke-miterlimit:4;stroke-opacity:1;stroke-dasharray:0.12, 0.06;stroke-dashoffset:0"
         id="path18"
         inkscape:connector-curvature="0" />
      <path
         d="m 0.37513798,1.7501983 0,0.00385 c 0,0.0153 0.029913,0.01537 0.046134,0.01537 l 0.76883702,0 c 0.01824,0 0.02777,-0.00431 0.04229,-0.00769 -0.00163,-0.01959 -0.01385,-0.0346 -0.0346,-0.0346 l -0.78806202,0 c -0.013189,0 -0.034598,0.00998 -0.034599,0.02307 z"
         style="fill:#ffffff;stroke:#000000;stroke-width:0.06;stroke-miterlimit:4;stroke-opacity:1;stroke-dasharray:0.12, 0.06;stroke-dashoffset:0"
         id="path20"
         inkscape:connector-curvature="0" />
      <rect
         height="0.40298399"
         style="fill:#ffffff;stroke:#000000;stroke-width:0.06;stroke-miterlimit:4;stroke-opacity:1;stroke-dasharray:0.12, 0.06;stroke-dashoffset:0"
         width="0.27085799"
         x="1.80163"
         y="1.05511"
         id="rect22" />
      <ellipse
         sodipodi:ry="0.039599098"
         sodipodi:rx="0.045061"
         sodipodi:cy="1.4415801"
         sodipodi:cx="1.5671"
         cx="1.5671"
         cy="1.4415801"
         rx="0.045061"
         ry="0.039599098"
         style="fill:#ffffff;stroke:#000000;stroke-width:0.06;stroke-miterlimit:4;stroke-opacity:1;stroke-dasharray:0.12, 0.06;stroke-dashoffset:0"
         id="ellipse34"
         d="m 1.612161,1.4415801 c 0,0.02187 -0.020174,0.039599 -0.045061,0.039599 -0.024887,0 -0.045061,-0.017729 -0.045061,-0.039599 0,-0.02187 0.020174,-0.039599 0.045061,-0.039599 0.024887,0 0.045061,0.017729 0.045061,0.039599 z" />
    </g>
    <path
       inkscape:connector-curvature="0"
       d="m 0.32825994,1.73168 c 0,0.0278 0.03826,0.03783 0.06535,0.03844 l 0,0.05766 0.004449,0.04991 c 0.013327,0.00511 0.008051,0.01166 0.030453,0.01514 0.0155781,0.00242 0.0239371,0.00415 0.0419801,0.00415 l 0.026909,0 0.042221,-0.00439 0.006988,-0.00791 0.005496,-0.04912 -8.86e-4,-0.0616 0.47668296,0 0,0.07689 c 0,0.02076 0.0083,0.0289 0.01538,0.04228 l 0.03446,0.0047 0.03089,-8.5e-4 c 0.04189,0 0.07688,-0.00291 0.07688,-0.04613 l 0,-0.07689 C 1.206113,1.76916 1.250863,1.76193 1.250863,1.73937 0.8181264,1.7302073 0.8367345,1.738399 0.32825994,1.73168 z"
       style="fill:#000000"
       id="path6-1"
       sodipodi:nodetypes="ccccssccccccscccsccc" />
  </g>
</svg>

<?xml version="1.0"?>
<!--
Copyright (C) 2012 United States Government as represented by the Administrator of the
National Aeronautics and Space Administration.
All Rights Reserved.
-->

<!DOCTYPE svg PUBLIC "-//W3C//DTD SVG 1.1//EN" "http://www.w3.org/Graphics/SVG/1.1/DTD/svg11.dtd" >
<!--
MIL-STD-2525 tactical symbol icon image. During icon composition this image is multiplied by the desired frame color 
(e.g. black), then drawn on top of the frame and fill.
-->
<svg xmlns:xlink="http://www.w3.org/1999/xlink" height="400px" viewBox="0 0 400 400" width="400px"><g transform="scale(100) translate(0.65 0.64)"><path d="M1.14194 1.27182 L1.09291 1.20118 L1.03483 1.20181 zM0.404798 1.7163 C0.404798 1.70321     0.426207 1.69323 0.439396 1.69323 L1.22746 1.69323 C1.24821 1.69323 1.26043     1.70824 1.26206 1.72783 C1.24754 1.73121 1.23801 1.73552 1.21977 1.73552     L0.450931 1.73552 C0.434711 1.73552 0.404797 1.73545 0.404797 1.72015 zM0.63927     1.46164 L1.01603 1.46258 L1.21975 1.4673 C1.2318 1.48916 1.26846 1.54335     1.2659 1.57406 L1.26137 1.63936 C1.24863 1.64254 1.24911 1.6471 1.23515     1.6471 L0.427865 1.6471 C0.4139 1.6471 0.41438 1.64254 0.400955 1.63941 C0.399404     1.62078 0.393266 1.61532 0.393266 1.59328 L0.393266 1.57791 C0.393266     1.55115 0.431479 1.49095 0.443266 1.46729 zM0.493215 1.41261 C0.495479 1.38544     0.57953 1.23578 0.600853 1.23578 L1.06216 1.23578 C1.08714 1.23578 1.16127     1.38069 1.1698 1.41261 zM1.03483 1.20181 L1.09291 1.20118 L1.14194 1.27182     zM2.14238 1.89698 L2.14238 0.589948 C2.11772 0.595692 1.88472 0.739665 1.8441     0.764495 C1.81145 0.784455 1.55422 0.927723 1.55422 0.943613 C1.55422 0.943628     1.586 0.997061 1.58882 1.00127 L1.71158 0.931648 L1.71183 1.41261 L1.70338     1.41953 C1.63065 1.37108 0.868486 0.870573 0.862262 0.870573 C0.859104     0.870573 0.765553 1.01044 0.762313 1.02434 L1.03236 1.19973 L0.573947 1.20118     C0.550726 1.23585 0.526845 1.25954 0.504813 1.29734 C0.499868 1.30582 0.454778     1.40825 0.454778 1.41261 L0.454778 1.43183 L0.424026 1.43183 C0.422262     1.453 0.358671 1.5473 0.358671 1.56637 L0.358671 1.58559 C0.358671 1.62256 0.368577     1.6571 0.39327 1.67017 C0.388337 1.67753 0.370207 1.69744 0.370207 1.70861     L0.370207 1.73168 C0.370207 1.75948 0.408467 1.76951 0.435557 1.77012     L0.435557 1.82778 L0.440006 1.87769 C0.453333 1.8828 0.448057 1.88935 0.470459     1.89283 C0.486037 1.89525 0.494396 1.89698 0.512439 1.89698 L0.539348 1.89698     L0.581569 1.89259 L0.588557 1.88468 L0.594053 1.83556 L0.593167 1.77396     L1.06985 1.77396 L1.06985 1.85085 C1.06985 1.87161 1.07815 1.87975 1.08523     1.89313 L1.11969 1.89783 L1.15058 1.89698 C1.19247 1.89698 1.22746 1.89407     1.22746 1.85085 L1.22746 1.77396 C1.24806 1.76916 1.29281 1.76193 1.29281 1.73937     L1.29281 1.69708 C1.29281 1.6838 1.28071 1.68041 1.26975 1.67786 C1.27331     1.66453 1.3005 1.6511 1.3005 1.61635 L1.3005 1.56637 C1.3005 1.52913 1.24731     1.46298 1.23899 1.43183 L1.20824 1.43183 L1.20824 1.42029 C1.20824 1.39259     1.15397 1.30133 1.14673 1.27422 L1.62141 1.58664 C1.61125 1.62514 1.5696     1.6846 1.5696 1.7163 L1.5696 1.89698 L2.14238 1.89698 L2.14238 1.89698 z" style="fill:rgb(0,0,0)"/><path d="M0.493217 1.41261 L1.1698 1.41261 C1.16128 1.38069 1.08715 1.23578 1.06216 1.23578     L0.600855 1.23578 C0.579532 1.23578 0.495481 1.38544 0.493217 1.41261 z" style="fill:rgb(255,255,255)"/><path d="M1.14673 1.60866 L1.14289 1.60866 C1.1159 1.60866 1.09675 1.59146 1.09675 1.56637     L1.09675 1.55484 C1.09675 1.53003 1.11115 1.50871 1.1352 1.50871 L1.14673 1.50871     C1.17096 1.50871 1.18517 1.53541 1.18517 1.55869 C1.18517 1.58566 1.17334     1.60866 1.14673 1.60866 zM1.06984 1.54715 L1.06984 1.57406 C1.06984 1.60004     1.10878 1.63557 1.14289 1.63557 C1.17909 1.63557 1.20824 1.60253 1.20824     1.56637 L1.20824 1.54715 C1.20824 1.51823 1.17639 1.4818 1.14673 1.4818 L1.14289     1.4818 C1.10783 1.4818 1.06984 1.51624 1.06984 1.54715 z" style="fill:rgb(0,0,0)"/><path d="M0.477843 1.551 L0.477843 1.57406 C0.477843 1.58948 0.501622 1.60866 0.520127 1.60866     L0.523973 1.60866 C0.539788 1.60866 0.562414 1.58985 0.562414 1.57791 L0.562414     1.54715 C0.562414 1.52783 0.5433 1.50871 0.523973 1.50871 L0.512438     1.50871 C0.497764 1.50871 0.477843 1.53384 0.477843 1.551 z" style="fill:rgb(255,255,255)"/><path d="M1.14673 1.60866 C1.17334 1.60866 1.18517 1.58566 1.18517 1.55869 C1.18517 1.53541     1.17096 1.50871 1.14673 1.50871 L1.1352 1.50871 C1.11115 1.50871 1.09675 1.53003     1.09675 1.55484 L1.09675 1.56637 C1.09675 1.59146 1.1159 1.60866 1.14289     1.60866 z" style="fill:rgb(255,255,255)"/><path d="M0.477843 1.551 C0.477843 1.53384 0.497764 1.50871 0.512437 1.50871 L0.523973 1.50871     C0.5433 1.50871 0.562414 1.52783 0.562414 1.54715 L0.562414 1.57791 C0.562414     1.58985 0.539788 1.60866 0.523973 1.60866 L0.520126 1.60866 C0.501623     1.60866 0.477843 1.58948 0.477843 1.57406 zM0.450934 1.56253 L0.450934 1.57022     C0.450934 1.60113 0.488918 1.63557 0.523973 1.63557 C0.557229 1.63557 0.593166     1.59752 0.593166 1.57406 L0.593166 1.54715 C0.593166 1.51856 0.556922     1.4818 0.523973 1.4818 C0.482119 1.4818 0.450934 1.52236 0.450934 1.56253 z" style="fill:rgb(0,0,0)"/><path d="M1.06985 1.54715 C1.06985 1.51624 1.10784 1.4818 1.14289 1.4818 L1.14674 1.4818 C1.1764     1.4818 1.20824 1.51822 1.20824 1.54715 L1.20824 1.56637 C1.20824 1.60252     1.17909 1.63557 1.14289 1.63557 C1.10878 1.63557 1.06985 1.60004 1.06985     1.57406 zM0.450937 1.56253 C0.450937 1.52235 0.482122 1.4818 0.523976 1.4818     C0.556925 1.4818 0.593169 1.51855 0.593169 1.54715 L0.593169 1.57406 C0.593169     1.59752 0.557232 1.63557 0.523976 1.63557 C0.488921 1.63557 0.450937 1.60113     0.450937 1.57022 zM0.443272 1.46729 C0.431484 1.49094 0.393272 1.55114     0.393272 1.57791 L0.393272 1.59328 C0.393272 1.61532 0.399409 1.62077 0.400961     1.63941 C0.414386 1.64254 0.413906 1.6471 0.42787 1.6471 L1.23515 1.6471     C1.24912 1.6471 1.24864 1.64254 1.26138 1.63935 L1.2659 1.57406 C1.26846 1.54335     1.23181 1.48916 1.21975 1.4673 L1.01603 1.46258 L0.639275 1.46164 z" style="fill:rgb(255,255,255)"/><path d="M0.404799 1.7163 L0.404799 1.72015 C0.404799 1.73545 0.434712 1.73552 0.450933 1.73552     L1.21977 1.73552 C1.23801 1.73552 1.24754 1.73121 1.26206 1.72783 C1.26043     1.70824 1.24821 1.69323 1.22746 1.69323 L0.439398 1.69323 C0.426209 1.69323     0.4048 1.70321 0.404799 1.7163 z" style="fill:rgb(255,255,255)"/><rect height="0.402984" style="fill:rgb(255,255,255);stroke:rgb(0,0,0);stroke-width:0.003" width="0.270858" x="1.80163" y="1.05511"/><ellipse cx="0.866837" cy="0.989051" rx="0.045061" ry="0.0395991" style="fill:rgb(255,255,255);stroke:rgb(0,0,0);stroke-width:0.003"/><ellipse cx="1.01218" cy="1.08154" rx="0.045061" ry="0.0395991" style="fill:rgb(255,255,255);stroke:rgb(0,0,0);stroke-width:0.003"/><ellipse cx="1.42837" cy="1.3557" rx="0.045061" ry="0.0395991" style="fill:rgb(255,255,255);stroke:rgb(0,0,0);stroke-width:0.003"/><ellipse cx="1.1476" cy="1.17072" rx="0.045061" ry="0.0395991" style="fill:rgb(255,255,255);stroke:rgb(0,0,0);stroke-width:0.003"/><ellipse cx="1.28634" cy="1.26321" rx="0.045061" ry="0.0395991" style="fill:rgb(255,255,255);stroke:rgb(0,0,0);stroke-width:0.003"/><ellipse cx="1.5671" cy="1.44158" rx="0.045061" ry="0.0395991" style="fill:rgb(255,255,255);stroke:rgb(0,0,0);stroke-width:0.003"/></g></svg>
